gama.ui.shared/icons_svg/dark/views/tabs/view.console.svg

<svg height="24.75" viewBox="-855.358 -2973.769 24.75 24.75" width="24.75" xmlns="http://www.w3.org/2000/svg"><path d="m-845.8662-2955.7947c.0778-.0156.1555 0 .2333.0311.8243.3886 1.7263.5909 2.6594.5909 3.4371 0 6.2209-2.7838 6.2209-6.2208 0-3.4371-2.7916-6.2209-6.2287-6.2209-3.437 0-6.2208 2.7838-6.2208 6.2209 0 1.3295.4199 2.5895 1.1741 3.6392.0856.1166.0934.2643.0389.3888l-.9487 2.0762 3.0638-.5132zm-3.6625 1.3919c-.3111.0544-.5444-.2644-.42-.5442l1.1587-2.535c-.7698-1.1432-1.1898-2.4963-1.1898-3.9115 0-3.8648 3.1338-6.9985 6.9985-6.9985 3.8648 0 6.9985 3.1337 6.9985 6.9985 0 3.8647-3.1337 6.9985-6.9985 6.9985-1.0031 0-1.9829-.21-2.8771-.6144l-3.6703.6144z" fill="#c0e0ff"/></svg>

<?xml version="1.0" encoding="UTF-8" standalone="no"?>
<!DOCTYPE svg PUBLIC "-//W3C//DTD SVG 1.1//EN" "http://www.w3.org/Graphics/SVG/1.1/DTD/svg11.dtd">
<svg xmlns="http://www.w3.org/2000/svg" xmlns:dc="http://purl.org/dc/elements/1.1/" version="1.1" xmlns:xl="http://www.w3.org/1999/xlink" viewBox="-855.3578 -2973.7685 24.75 24.75" width="24.75" height="24.75">
  <defs/>
  <g id="SOURCES" fill="none" stroke="none" stroke-dasharray="none" fill-opacity="1" stroke-opacity="1">
    <title>SOURCES</title>
    <g id="SOURCES_Dark">
      <title>Dark</title>
      <g id="Group_12699">
        <g id="Graphic_11043">
          <path d="M -845.8662 -2955.7947 C -845.7884 -2955.8103 -845.7107 -2955.7947 -845.6329 -2955.7636 C -844.8086 -2955.375 -843.9066 -2955.1727 -842.9735 -2955.1727 C -839.5364 -2955.1727 -836.7526 -2957.9565 -836.7526 -2961.3935 C -836.7526 -2964.8306 -839.5442 -2967.6144 -842.9813 -2967.6144 C -846.4183 -2967.6144 -849.2021 -2964.8306 -849.2021 -2961.3935 C -849.2021 -2960.064 -848.7822 -2958.804 -848.028 -2957.7543 C -847.9424 -2957.6377 -847.9346 -2957.49 -847.9891 -2957.3655 L -848.9378 -2955.2893 L -845.874 -2955.8025 Z M -849.5287 -2954.4028 C -849.8398 -2954.3484 -850.0731 -2954.6672 -849.9487 -2954.947 L -848.79 -2957.482 C -849.5598 -2958.6252 -849.9798 -2959.9783 -849.9798 -2961.3935 C -849.9798 -2965.2583 -846.846 -2968.392 -842.9813 -2968.392 C -839.1165 -2968.392 -835.9828 -2965.2583 -835.9828 -2961.3935 C -835.9828 -2957.5288 -839.1165 -2954.395 -842.9813 -2954.395 C -843.9844 -2954.395 -844.9642 -2954.605 -845.8584 -2955.0094 L -849.5287 -2954.395 Z" fill="#c0e0ff"/>
        </g>
        <g id="Graphic_12676"/>
      </g>
    </g>
  </g>
</svg>
